icons/24x24_add_badged_outline.svg

<svg xmlns="http://www.w3.org/2000/svg" width="24" height="24" viewBox="0 0 24 24">
  <path fill-rule="evenodd" d="M12,2 C17.5229861,2 22,6.47701386 22,12 C22,17.5229861 17.5229861,22 12,22 C6.47701386,22 2,17.5229861 2,12 C2,6.47701386 6.47701386,2 12,2 Z M12,4 C7.58158644,4 4,7.58158644 4,12 C4,16.4184136 7.58158644,20 12,20 C16.4184136,20 20,16.4184136 20,12 C20,7.58158644 16.4184136,4 12,4 Z M13,11 L17,11 C17.5522847,11 18,11.4477153 18,12 C18,12.5522847 17.5522847,13 17,13 L13,13 L13,17 C13,17.5522847 12.5522847,18 12,18 C11.4477153,18 11,17.5522847 11,17 L11,13 L7,13 C6.44771525,13 6,12.5522847 6,12 C6,11.4477153 6.44771525,11 7,11 L11,11 L11,7 C11,6.44771525 11.4477153,6 12,6 C12.5522847,6 13,6.44771525 13,7 L13,11 Z"/>
</svg>

<svg width="24" height="24" fill="none" xmlns="http://www.w3.org/2000/svg"><path fill-rule="evenodd" clip-rule="evenodd" d="M12 2c5.523 0 10 4.477 10 10s-4.477 10-10 10S2 17.523 2 12 6.477 2 12 2Zm0 2a8 8 0 1 0 0 16 8 8 0 0 0 0-16Zm1 7h4a1 1 0 1 1 0 2h-4v4a1 1 0 1 1-2 0v-4H7a1 1 0 1 1 0-2h4V7a1 1 0 1 1 2 0v4Z" fill="#000"/></svg>
